packages/ffe-icons/icons/open/300/md/add_card.svg

<svg xmlns="http://www.w3.org/2000/svg" height="24" viewBox="0 -960 960 960" width="24"><path d="M172.309-180.001q-30.308 0-51.308-21t-21-51.308v-455.382q0-30.308 21-51.308t51.308-21h615.382q30.308 0 51.308 21t21 51.308v175.538q0 14.921-10.173 25.46-10.173 10.538-25.212 10.538H160v243.846q0 4.616 3.846 8.463 3.847 3.846 8.463 3.846h352.307q12.749 0 21.374 8.629 8.625 8.628 8.625 21.384 0 12.755-8.625 21.37-8.625 8.616-21.374 8.616H172.309ZM160-623.845h640v-83.846q0-4.616-3.846-8.463-3.847-3.846-8.463-3.846H172.309q-4.616 0-8.463 3.846-3.846 3.847-3.846 8.463v83.846Zm610.001 413.844H680q-12.75 0-21.375-8.628-8.624-8.629-8.624-21.384 0-12.756 8.624-21.371 8.625-8.615 21.375-8.615h90.001V-360q0-12.75 8.628-21.374 8.629-8.625 21.384-8.625 12.756 0 21.371 8.625 8.615 8.624 8.615 21.374v90.001H920q12.75 0 21.375 8.628 8.624 8.629 8.624 21.384 0 12.756-8.624 21.371-8.625 8.615-21.375 8.615h-90.001V-120q0 12.75-8.628 21.374Q812.742-90 799.987-90q-12.756 0-21.371-8.624-8.615-8.625-8.615-21.375v-90.001ZM160-240v-480V-240Z"/></svg>

<svg xmlns="http://www.w3.org/2000/svg" height="24" viewBox="0 -960 960 960" width="24"><path d="M172.31-180Q142-180 121-201q-21-21-21-51.31v-455.38Q100-738 121-759q21-21 51.31-21h615.38Q818-780 839-759q21 21 21 51.31v175.54q0 14.92-10.17 25.46-10.18 10.53-25.22 10.53H160v243.85q0 4.62 3.85 8.46 3.84 3.85 8.46 3.85h352.31q12.75 0 21.37 8.63 8.62 8.63 8.62 21.38 0 12.76-8.62 21.37-8.62 8.62-21.37 8.62H172.31ZM160-623.84h640v-83.85q0-4.62-3.85-8.46-3.84-3.85-8.46-3.85H172.31q-4.62 0-8.46 3.85-3.85 3.84-3.85 8.46v83.85ZM770-210h-90q-12.75 0-21.37-8.63-8.63-8.63-8.63-21.38 0-12.76 8.63-21.37Q667.25-270 680-270h90v-90q0-12.75 8.63-21.37 8.63-8.63 21.38-8.63 12.76 0 21.37 8.63Q830-372.75 830-360v90h90q12.75 0 21.37 8.63 8.63 8.63 8.63 21.38 0 12.76-8.63 21.37Q932.75-210 920-210h-90v90q0 12.75-8.63 21.37Q812.74-90 799.99-90q-12.76 0-21.37-8.63Q770-107.25 770-120v-90Zm-610-30V-720v480Z"/></svg>
